nextcloudappstore/core/static/assets/img/icons/list/star-plus.svg

<svg width="20" height="20" fill="none" style="-webkit-print-color-adjust:exact" version="1.1" viewBox="0 0 20 20" xmlns="http://www.w3.org/2000/svg"><g rx="0" ry="0" fill="#000"><g class="fills"><path rx="0" ry="0" d="m4.833 17.5 1.334-5.833-4.5-4 6-0.5 2.333-5.5 2.333 5.5 6 0.5-2.666 2.333h-0.667c-2.583 0-4.667 1.917-5 4.417l-5.167 3.083zm9.334-5.833v2.5h-2.5v1.666h2.5v2.5h1.666v-2.5h2.5v-1.666h-2.5v-2.5h-1.666z" fill="#007bbd"/></g></g></svg>

<svg xmlns:xlink="http://www.w3.org/1999/xlink" width="20" xmlns="http://www.w3.org/2000/svg" height="20" id="screenshot-db15cf86-6f9e-8025-8002-bbab9ed6608d" viewBox="0 0 20 20" style="-webkit-print-color-adjust: exact;" fill="none" version="1.1"><g id="shape-db15cf86-6f9e-8025-8002-bbab9ed6608d" rx="0" ry="0" style="fill: rgb(0, 0, 0);"><g id="shape-db15cf86-6f9e-8025-8002-bbab9ed6608f"><g class="fills" id="fills-db15cf86-6f9e-8025-8002-bbab9ed6608f"><path rx="0" ry="0" d="M4.833,17.500L6.167,11.667L1.667,7.667L7.667,7.167L10.000,1.667L12.333,7.167L18.333,7.667L15.667,10.000L15.000,10.000C12.417,10.000,10.333,11.917,10.000,14.417L4.833,17.500ZM14.167,11.667L14.167,14.167L11.667,14.167L11.667,15.833L14.167,15.833L14.167,18.333L15.833,18.333L15.833,15.833L18.333,15.833L18.333,14.167L15.833,14.167L15.833,11.667L14.167,11.667ZZ" style="fill: rgb(0, 123, 189); fill-opacity: 1;"/></g></g></g></svg>
